src/assets/IconRulingActive.svg

<svg width="557" height="557" fill="none" xmlns="http://www.w3.org/2000/svg"><g fill-rule="evenodd" clip-rule="evenodd"><path d="M278.5 557C432.311 557 557 432.311 557 278.5S432.311 0 278.5 0 0 124.689 0 278.5 124.689 557 278.5 557z" fill="url(#paint0_linear)"/><path opacity=".668" d="M290.362 364.945c0-7.15 5.92-12.945 13.22-12.945h99.835c7.301 0 13.22 5.796 13.22 12.945a12.66 12.66 0 0 1-1.624 6.216H434V398H273v-26.839h18.986a12.674 12.674 0 0 1-1.624-6.216z" fill="url(#paint1_linear)"/><path opacity=".668" d="M292.082 127.973l-74.996 65.895c-5.961 4.315-14.345 3.49-19.311-2.118l-4.992-5.635c-5.273-5.956-4.695-15.048 1.292-20.309l72.926-64.076c5.987-5.26 15.115-4.697 20.39 1.259l4.992 5.636c4.965 5.607 4.741 13.996-.301 19.348z" fill="url(#paint2_linear)"/><path d="M98.63 366.515l-.141-1.269-.084-1.206c-.076-.821-.076-1.562-.094-2.321-.07-3.035.212-5.671.684-8.09.974-4.81 2.822-8.629 5.354-11.672.628-.765 1.32-1.459 2.006-2.161l2.054-2.106c1.362-1.414 2.762-2.784 4.149-4.168a290.566 290.566 0 0 1 4.198-4.113 300.722 300.722 0 0 1 4.241-4.063 607.149 607.149 0 0 1 8.595-7.999l4.348-3.943 4.382-3.906a927.952 927.952 0 0 1 8.84-7.72 753.564 753.564 0 0 1 8.938-7.61l9.012-7.525 9.095-7.434 9.164-7.355 9.226-7.285 9.286-7.217 9.345-7.148c3.131-2.367 6.257-4.737 9.416-7.072 3.149-2.342 6.294-4.694 9.474-7.004l3.912 4.432 14.611-9.933-22.044-24.964 75.047-66.13 54.211 61.392-75.047 66.13-22.044-24.964-11.689 13.242 3.913 4.433c-2.692 2.864-5.419 5.684-8.14 8.515-2.712 2.839-5.455 5.642-8.196 8.449l-8.266 8.372-8.329 8.302-8.386 8.236-8.449 8.164-8.517 8.088-8.599 7.993a754.764 754.764 0 0 1-8.676 7.91 940.468 940.468 0 0 1-8.771 7.8l-4.425 3.853-4.458 3.817c-2.989 2.528-5.981 5.049-9.018 7.522a301.584 301.584 0 0 1-4.564 3.696 290.422 290.422 0 0 1-4.61 3.647c-1.549 1.202-3.084 2.418-4.657 3.59l-2.349 1.773c-.783.591-1.559 1.192-2.397 1.719-3.339 2.129-7.362 3.485-12.26 3.848a37.184 37.184 0 0 1-8.122-.329c-.752-.112-1.487-.207-2.295-.383l-1.186-.235-1.244-.299c-1.658-.4-3.453-.957-5.423-1.709a44.57 44.57 0 0 1-1.02-5.59z" fill="#fff"/><path opacity=".668" d="M388.672 240.035l-72.926 64.075c-5.988 5.26-15.116 4.697-20.39-1.259l-4.992-5.636c-4.966-5.609-4.741-13.996.301-19.349l74.995-65.894c5.961-4.314 14.345-3.49 19.311 2.118l4.991 5.636c5.276 5.956 4.697 15.048-1.29 20.309z" fill="url(#paint3_linear)"/></g><defs><linearGradient id="paint0_linear" x1="172.727" y1="782.523" x2="719.023" y2="350.945" gradientUnits="userSpaceOnUse"><stop stop-color="#FFB36D"/><stop offset="1" stop-color="#F88"/></linearGradient><linearGradient id="paint1_linear" x1="129.618" y1="373.33" x2="173.6" y2="282.056" gradientUnits="userSpaceOnUse"><stop stop-color="#fff" stop-opacity=".01"/><stop offset="1" stop-color="#fff"/></linearGradient><linearGradient id="paint2_linear" x1="13.64" y1="212.598" x2="107.977" y2="24.088" gradientUnits="userSpaceOnUse"><stop stop-color="#fff" stop-opacity=".01"/><stop offset="1" stop-color="#fff"/></linearGradient><linearGradient id="paint3_linear" x1="111.221" y1="323.701" x2="205.559" y2="135.191" gradientUnits="userSpaceOnUse"><stop stop-color="#fff" stop-opacity=".01"/><stop offset="1" stop-color="#fff"/></linearGradient></defs></svg>

<svg width="557" height="557" viewBox="0 0 557 557" fill="none" xmlns="http://www.w3.org/2000/svg">
<g id="Group 71">
<g id="Group 67">
<path id="Oval Copy 16" fill-rule="evenodd" clip-rule="evenodd" d="M278.5 557C432.311 557 557 432.311 557 278.5C557 124.689 432.311 0 278.5 0C124.689 0 0 124.689 0 278.5C0 432.311 124.689 557 278.5 557Z" fill="url(#paint0_linear)"/>
<path id="Path" opacity="0.668271" fill-rule="evenodd" clip-rule="evenodd" d="M290.362 364.945C290.362 357.795 296.282 352 303.582 352H403.417C410.718 352 416.637 357.796 416.637 364.945C416.637 367.198 416.048 369.316 415.013 371.161H434V398H273V371.161H291.986C290.952 369.315 290.362 367.198 290.362 364.945Z" fill="url(#paint1_linear)"/>
<g id="Group 81">
<path id="Path_2" opacity="0.668271" fill-rule="evenodd" clip-rule="evenodd" d="M292.082 127.973L217.086 193.868C211.125 198.183 202.741 197.358 197.775 191.75L192.783 186.115C187.51 180.159 188.088 171.067 194.075 165.806L267.001 101.73C272.988 96.4699 282.116 97.0331 287.391 102.989L292.383 108.625C297.348 114.232 297.124 122.621 292.082 127.973Z" fill="url(#paint2_linear)"/>
<path id="Path_3" fill-rule="evenodd" clip-rule="evenodd" d="M98.6302 366.515L98.489 365.246L98.4047 364.04C98.3293 363.219 98.3287 362.478 98.3107 361.719C98.2403 358.684 98.5229 356.048 98.9953 353.629C99.9685 348.819 101.817 345 104.349 341.957C104.977 341.192 105.669 340.498 106.355 339.796L108.409 337.69C109.771 336.276 111.171 334.906 112.558 333.522C113.941 332.132 115.347 330.769 116.756 329.409C118.159 328.041 119.569 326.685 120.997 325.346C123.831 322.645 126.706 319.993 129.592 317.347L133.94 313.404L138.322 309.498C141.255 306.911 144.195 304.329 147.162 301.778C150.123 299.22 153.099 296.68 156.1 294.168L165.112 286.643L174.207 279.209L183.371 271.854L192.597 264.569L201.883 257.352L211.228 250.204C214.359 247.837 217.485 245.467 220.644 243.132C223.793 240.79 226.938 238.438 230.118 236.128L234.03 240.56L248.641 230.627L226.597 205.663L301.644 139.533L355.855 200.925L280.808 267.055L258.764 242.091L247.075 255.333L250.988 259.766C248.296 262.63 245.569 265.45 242.848 268.281C240.136 271.12 237.393 273.923 234.652 276.73L226.386 285.102L218.057 293.404L209.671 301.64L201.222 309.804L192.705 317.892L184.106 325.885C181.235 328.546 178.342 331.179 175.43 333.795C172.526 336.418 169.596 339.008 166.659 341.595L162.234 345.448L157.776 349.265C154.787 351.793 151.795 354.314 148.758 356.787C147.25 358.034 145.728 359.264 144.194 360.483C142.667 361.709 141.137 362.934 139.584 364.13C138.035 365.332 136.5 366.548 134.927 367.72L132.578 369.493C131.795 370.084 131.019 370.685 130.181 371.212C126.842 373.341 122.819 374.697 117.921 375.06C115.459 375.228 112.805 375.178 109.799 374.731C109.047 374.619 108.312 374.524 107.504 374.348L106.318 374.113L105.074 373.814C103.416 373.414 101.621 372.857 99.6507 372.105C99.1497 370.058 98.8219 368.21 98.6302 366.515Z" fill="white"/>
<path id="Path_4" opacity="0.668271" fill-rule="evenodd" clip-rule="evenodd" d="M388.672 240.035L315.746 304.11C309.758 309.37 300.63 308.807 295.356 302.851L290.364 297.215C285.398 291.606 285.623 283.219 290.665 277.866L365.66 211.972C371.621 207.658 380.005 208.482 384.971 214.09L389.962 219.726C395.238 225.682 394.659 234.774 388.672 240.035Z" fill="url(#paint3_linear)"/>
</g>
</g>
</g>
<defs>
<linearGradient id="paint0_linear" x1="172.727" y1="782.523" x2="719.023" y2="350.945" gradientUnits="userSpaceOnUse">
<stop stop-color="#FFB36D"/>
<stop offset="1" stop-color="#FF8888"/>
</linearGradient>
<linearGradient id="paint1_linear" x1="129.618" y1="373.33" x2="173.6" y2="282.056" gradientUnits="userSpaceOnUse">
<stop stop-color="white" stop-opacity="0.01"/>
<stop offset="1" stop-color="white"/>
</linearGradient>
<linearGradient id="paint2_linear" x1="13.6397" y1="212.598" x2="107.977" y2="24.0885" gradientUnits="userSpaceOnUse">
<stop stop-color="white" stop-opacity="0.01"/>
<stop offset="1" stop-color="white"/>
</linearGradient>
<linearGradient id="paint3_linear" x1="111.221" y1="323.701" x2="205.559" y2="135.191" gradientUnits="userSpaceOnUse">
<stop stop-color="white" stop-opacity="0.01"/>
<stop offset="1" stop-color="white"/>
</linearGradient>
</defs>
</svg>
